!!!!SEGMENT: pl-sa--283-a-vii-43_brentner-johann-joseph-ignaz--sub-specie-panis.krn
!!!cenid: 17xx:553
!!!COM: Brentner, Johann Joseph Ignaz
!!!COM-rismID: pe30000477
!!!CDT: 1689/11/03-1742/06/28
!!!CNT: Czech
!!!OTL: Sub specie panis
!!!PDT:
!!!AGN: Sacred
!!!SMS-siglum: PL-SA
!!!SMS-shelfmark: 283/A VII 43
!!!SMS-shelfwork: W
!!!SMS-variant:
!!!SMS-altvar:
!!!NIFC-rismSourceID: 1001029968
!!!NIFC-islandoraID:
!!!URL-pdf-islandora:
!!!URL-scan: https://bc.bdsandomierz.pl/dlibra/publication/1766/edition/1734/content @EN{Scan on Cyfrowa Biblioteka Diecezjalna w Sandomierzu} @PL{Skany w portalu Cyfrowa Biblioteka Diecezjalna w Sandomierzu}
!!!ONB-nifc:
!!!AIN: 1 flt 1 organ 2 violn 1 vox
!!!key:
**kern	**fb	**kern	**kern	**dynam	**kern	**text	**kern
*part5	*	*part4	*part3	*part3	*part2	*part2	*part1
*group	*	*group1	*group1	*group1	*group	*group	*group
*staff5	*	*staff4	*staff3	*	*staff2	*staff2	*staff1
*Iorgan	*	*Ivioln	*Ivioln	*	*Ivox	*	*Iflt
*I"Organo.	*	*I"Violino 2do	*I"Violino 1mo.	*	*I"Canto Solo	*	*I"Flauto traverso Primo
*I'org	*	*I'vl 2	*I'vl 1	*	*I'S solo	*	*I'fl 1
*clefF4	*	*clefG2	*clefG2	*	*clefC1	*	*clefG2
*k[]	*	*k[]	*k[]	*	*k[]	*	*k[]
*C:	*	*C:	*C:	*	*C:	*	*C:
*M2/4	*	*M2/4	*M2/4	*	*M2/4	*	*M2/4
!LO:TX:b:i:t=Sub ſpecie Paniſ	!	!	!	!	!	!	!LO:TX:b:i:t=ſub specie paniſ
8r	.	8r	8g/	.	8r	.	8gg\
=1	=1	=1	=1	=1	=1	=1	=1
*	*above	*	*	*	*	*	*
!	!	!	!	!	!LO:N:vis=00	!	!
4C/	.	2r	4.cc\	.	0r	.	4.ccc\
4F\	.	.	.	.	.	.	.
.	.	.	(>16dd\LL	.	.	.	16ddd\LL
.	.	.	16cc\JJ)	.	.	.	16ccc\JJ
=2	=2	=2	=2	=2	=2	=2	=2
8G\L	.	4r	8b\L	.	.	.	8bb\L
8C\J	.	.	8cc\J	.	.	.	8ccc\J
!	!	!	!	!	!	!	!LO:N:vis=16
4r	.	8r	8r	.	.	.	8r
.	.	8g/	8g/	.	.	.	8ccc\
=3	=3	=3	=3	=3	=3	=3	=3
4C/	.	4.cc\	4.ee\	.	.	.	4.eee\
4F\	.	.	.	.	.	.	.
.	.	16dd\LL	16ff\LL	.	.	.	16fff\LL
.	.	16cc\JJ	16ee\JJ	.	.	.	16eee\JJ
=4	=4	=4	=4	=4	=4	=4	=4
8G\L	.	8b\L	8dd\L	.	.	.	8ddd\L
8C\J	.	8cc\J	8ee\J	.	.	.	8eee\J
8r	.	8r	8r	.	.	.	8r
16C/LL	.	16cc\LL	16ee\LL	.	.	.	16ee\LL
16D/JJ	.	16dd\JJ	16ff\JJ	.	.	.	16ff\JJ
=5	=5	=5	=5	=5	=5	=5	=5
!	!	!	!	!	!LO:N:vis=00	!	!
8E/L	X 6	4ee\	4gg\	.	0r	.	4gg\
8C/J	.	.	.	.	.	.	.
4F\	.	4ff\	4aa\	.	.	.	4aa\
=6	=6	=6	=6	=6	=6	=6	=6
8E/L	X 6	4ee\	4gg\	.	.	.	4gg\
8C/J	.	.	.	.	.	.	.
4F\	.	4ff\	4aa\	.	.	.	4aa\
=7	=7	=7	=7	=7	=7	=7	=7
8C/L	.	8ee\L	8gg\L	.	.	.	8gg\L
8D/	X 7	16ff\L	16aa\L	.	.	.	16aa\L
.	.	16ee\JJ	16gg\JJ	.	.	.	16gg\JJ
8E/	X 7	16ff\LL	16aa\LL	.	.	.	16aa\LL
.	.	16ee\	16gg\	.	.	.	16gg\
!LO:SIC:s=8C	!	!	!	!	!	!	!
8D/J	.	16dd\	16ff\	.	.	.	16ff\
.	.	16cc\JJ	16ee\JJ	.	.	.	16ee\JJ
!LO:LB:g=original	!	!	!	!	!	!	!
=8	=8	=8	=8	=8	=8	=8	=8
!LO:TX:a:t=P:problem=mixed beam	!	!	!LO:TX:a:t=P:problem=mixed beam	!	!	!	!
8G\L	.	8b/L	8dd\L	.	.	.	8dd\L
8GG/J	.	8b/J	8g/J	.	.	.	8dd\J
4GG/	.	8r	8r	.	.	.	8r
.	.	16dd\LL	16gg\LL	.	.	.	16gg\LL
.	.	16b\JJ	16dd\JJ	.	.	.	16dd\JJ
=9	=9	=9	=9	=9	=9	=9	=9
!	!	!	!	!	!LO:N:vis=00	!	!
4GG/	.	8b\L	8dd\L	.	0r	.	8dd\L
.	.	16cc\L	16ee\L	.	.	.	16ee\L
.	.	16b\JJ	16dd\JJ	.	.	.	16dd\JJ
4GG/	.	8b\L	8dd\L	.	.	.	8dd\L
.	.	16cc\L	16ee\L	.	.	.	16ee\L
.	.	16b\JJ	16dd\JJ	.	.	.	16dd\JJ
!	!	!	!	!	!	!	!LO:LB:g=original
=10	=10	=10	=10	=10	=10	=10	=10
4GG/	.	8cc\L	8ee\L	.	.	.	8ee\L
.	.	16dd\L	16ff\L	.	.	.	16ff\L
.	.	16cc\JJ	16ee\JJ	.	.	.	16ee\JJ
4r	.	8cc\L	8dd\L	.	.	.	8dd\L
.	.	16dd\L	16gg\L	.	.	.	16gg\L
.	.	16b\JJ	16dd\JJ	.	.	.	16dd\JJ
!	!	!LO:LB:g=original	!	!	!	!	!
=11	=11	=11	=11	=11	=11	=11	=11
4GG/	.	8b\L	8dd\L	.	.	.	8dd\L
.	.	16cc\L	16ee\L	.	.	.	16ee\L
.	.	16b\JJ	16dd\JJ	.	.	.	16dd\JJ
4GG/	.	8b/L	8dd\L	.	.	.	8dd\L
.	.	16cc/L	16ee\L	.	.	.	16ee\L
.	.	16b/JJ	16dd\JJ	.	.	.	16dd\JJ
!	!	!	!LO:LB:g=original	!	!	!	!
=12	=12	=12	=12	=12	=12	=12	=12
4GG/	6 4	8cc\L	8ee\L	.	.	.	8ee\L
.	.	16dd\L	16ff\L	.	.	.	16ff\L
.	.	16cc\JJ	16ee\JJ	.	.	.	16ee\JJ
4r	.	8b\L	8dd\L	.	.	.	8dd\L
.	.	8cc\J	8ee\J	.	.	.	8ee\J
=13	=13	=13	=13	=13	=13	=13	=13
!	!	!	!	!	!LO:N:vis=0	!	!
4GG/	X 7	4.dd\	4.ff\	.	1r	.	4.ff\
4GG/	.	.	.	.	.	.	.
.	.	8ee\	8gg\	.	.	.	8gg\
=14	=14	=14	=14	=14	=14	=14	=14
!LO:TX:a:t=P:problem=mixed beam	!	!	!	!	!	!	!
8C\L	.	8cc\L	8ee\L	.	.	.	8eee\L
8F\	6 5	16b\L	16dd\L	.	.	.	16ddd\L
.	.	16a\JJ	16cc\JJ	.	.	.	16ccc\JJ
8G\	X 4	8f/L	8a/L	.	.	.	8aa\L
8GG/J	X 3	8d/J	8b/J	.	.	.	8bb\J
=15	=15	=15	=15	=15	=15	=15	=15
4C/	.	4e/	4cc\	.	4r	.	4ccc\
4r	.	4r	4r	.	8r	.	4r
.	.	.	.	.	8g/	Sub	.
=16	=16	=16	=16	=16	=16	=16	=16
!LO:N:vis=00	!	!	!	!	!LO:N:vis=8.	!	!
0r	.	2r	2r	.	4.cc\	ſpe-	2r
!	!	!LO:TX:a:t=1	!LO:TX:a:t=1	!	!	!	!LO:TX:a:t=1
.	.	.	.	.	16dd\	-ci-	.
.	.	.	.	.	16cc\	-e	.
=17	=17	=17	=17	=17	=17	=17	=17
.	.	4r	4r	.	8b\	Pa-	4r
.	.	.	.	.	8cc\	-niſ	.
.	.	8r	8r	.	8r	.	8r
.	.	8g/	8g/	.	8g/	Sub	8gg\
=18	=18	=18	=18	=18	=18	=18	=18
!	!	!	!	!	!LO:N:vis=8.	!	!
!	!	!	!	!LO:DY:b:t=piano	!	!	!
.	.	4.e/	4.cc\	p	4.ee\	ſpe-	4.ccc\
.	.	16f/LL	16dd\LL	.	16ff\	-ci-	16ddd\LL
.	.	16e/JJ	16cc\JJ	.	16ee\	-e	16ccc\JJ
=19	=19	=19	=19	=19	=19	=19	=19
.	.	8d/L	8b\L	.	8dd\	Vi-	8bb\L
.	.	8e/J	8cc\J	.	8ee\	-ni	8ccc\J
.	.	8r	8r	.	8r	.	8r
.	.	16e/LL	16cc\LL	.	16ee\LL	a-	16cc\LL
.	.	16f/JJ	16dd\JJ	.	16ff\JJ	.	16dd\JJ
!	!	!	!	!	!	!	!LO:LB:g=original
=20	=20	=20	=20	=20	=20	=20	=20
!LO:N:vis=00	!	!	!	!	!	!	!
0r	.	4g/	4ee\	.	4gg\	-do-	4ee\
.	.	4a/	4ff\	.	4aa\	-ro	4ff\
=21	=21	=21	=21	=21	=21	=21	=21
.	.	4g/	4ee\	.	4gg\	Chri-	4ee\
.	.	4a/	4ff\	.	4aa\	-ſtu(m)	4ff\
=22	=22	=22	=22	=22	=22	=22	=22
.	.	8g/L	8ee\L	.	8gg\L	Chri-	8gg\L
.	.	16a/L	16ff\L	.	16aa\L	.	16aa\L
.	.	16g/JJ	16ee\JJ	.	16gg\JJ	.	16gg\JJ
!	!	!	!	!	!LO:LB:g=original	!	!
.	.	16a/LL	16ff\LL	.	16aa\LL	.	16aa\LL
.	.	16g/	16ee\	.	16gg\	.	16gg\
.	.	16f/	16dd\	.	16ff\	.	16ff\
.	.	16e/JJ	16cc\JJ	.	16ee\JJ	.	16ee\JJ
=23	=23	=23	=23	=23	=23	=23	=23
.	.	8d/L	8b/L	.	8dd\	.	8dd\L
.	.	8d/J	8g/J	.	8g/	-ſtum	8b\J
.	.	8r	8r	.	4r	.	8r
.	.	8g/	8g/	.	.	.	8gg\
!	!	!LO:LB:g=original	!	!	!	!	!
=24-	=24-	=24	=24	=24	=24	=24	=24
!	!	!	!	!LO:DY:b:t=forte	!	!	!
!	!	!	!	!	!LO:N:vis=00	!	!
4C/	.	4.e/	4.cc\	f	0r	.	4.ccc\
4F\	.	.	.	.	.	.	.
.	.	16f/LL	16dd\LL	.	.	.	16ddd\LL
.	.	16e/JJ	16cc\JJ	.	.	.	16ccc\JJ
=25	=25	=25	=25	=25	=25	=25	=25
8G\L	.	8d/L	8b\L	.	.	.	8bb\L
8C\J	.	8e/J	8cc\J	.	.	.	8ccc\J
4r	.	8r	8r	.	.	.	8r
.	.	8g/	8g/	.	.	.	8gg\
!LO:LB:g=original	!	!	!LO:LB:g=original	!	!	!	!
=26	=26	=26	=26	=26	=26	=26	=26
4C/	.	4.cc\	4.ee\	.	.	.	4.ccc\
4F\	.	.	.	.	.	.	.
.	.	16dd\LL	16ff\LL	.	.	.	16ddd\LL
.	.	16cc\JJ	16ee\JJ	.	.	.	16ccc\JJ
=27	=27	=27	=27	=27	=27	=27	=27
8G\L	.	8b\L	8dd\L	.	.	.	8bb\L
8C\J	.	8cc\J	8ee\J	.	.	.	8ccc\J
8r	.	8r	8r	.	.	.	8r
16C/LL	.	16cc\LL	16ee\LL	.	.	.	16ee\LL
16D/JJ	.	16dd\JJ	16ff\JJ	.	.	.	16ff\JJ
=28	=28	=28	=28	=28	=28	=28	=28
!	!	!	!	!	!LO:N:vis=00	!	!
8E\L	X 6	4ee\	4gg\	.	0r	.	4gg\
8C\J	.	.	.	.	.	.	.
4F\	.	4ff\	4aa\	.	.	.	4aa\
=29	=29	=29	=29	=29	=29	=29	=29
8E\L	X 6	4ee\	4gg\	.	.	.	4gg\
8C\J	.	.	.	.	.	.	.
4F\	.	4ff\	4aa\	.	.	.	4aa\
=30	=30	=30	=30	=30	=30	=30	=30
8E\L	.	8ee\L	8gg\L	.	.	.	8gg\L
8C\J	.	16ff\L	16aa\L	.	.	.	16aa\L
.	.	16ee\JJ	16gg\JJ	.	.	.	16gg\JJ
8D\L	.	16ff\LL	16aa\LL	.	.	.	16aa\LL
.	.	16ee\	16gg\	.	.	.	16gg\
16E\L	x 6	16dd\	16ff\	.	.	.	16ff\
16F\JJ	.	16cc\JJ	16ee\JJ	.	.	.	16ee\JJ
!	!	!	!	!	!	!	!LO:LB:g=original
=31	=31	=31	=31	=31	=31	=31	=31
!LO:TX:a:t=P:problem=mixed beam	!	!	!LO:TX:a:t=P:problem=mixed beam	!	!	!	!
8G\L	.	8g/L	8dd\L	.	.	.	8dd\L
8GG/J	.	8g/J	8g/J	.	.	.	8dd\J
4GG/	.	8r	8r	.	.	.	8r
.	.	16dd\LL	16gg\LL	.	.	.	16ddd\LL
.	.	16b\JJ	16dd\JJ	.	.	.	16bb\JJ
=32	=32	=32	=32	=32	=32	=32	=32
!	!	!	!	!	!LO:N:vis=00	!	!
4GG/	.	8b\L	8dd\L	.	0r	.	8bb\L
.	.	16cc\L	16ee\L	.	.	.	16ccc\L
.	.	16b\JJ	16dd\JJ	.	.	.	16bb\JJ
4GG/	.	8b\L	8dd\L	.	.	.	8bb\L
.	.	16dd\L	16gg\L	.	.	.	16ddd\L
.	.	16b\JJ	16dd\JJ	.	.	.	16bb\JJ
=33	=33	=33	=33	=33	=33	=33	=33
4GG/	6 4	8b\L	8dd\L	.	.	.	8bb\L
.	.	16cc\L	16ee\L	.	.	.	16ccc\L
.	.	16b\JJ	16dd\JJ	.	.	.	16bb\JJ
4r	.	8b\L	8dd\L	.	.	.	8bb\L
.	.	16cc\L	16ee\L	.	.	.	16ccc\L
.	.	16b\JJ	16dd\JJ	.	.	.	16bb\JJ
=34	=34	=34	=34	=34	=34	=34	=34
4GG/	.	8cc\L	8ee\L	.	.	.	8ccc\L
.	.	16dd\L	16ff\L	.	.	.	16ddd\L
.	.	16cc\JJ	16ee\JJ	.	.	.	16ccc\JJ
4GG/	.	8b\	8dd\L	.	.	.	8bb\L
!	!	!LO:TX:a:t=P:problem=fragment nieczytelny - defekt rękopisu	!	!	!	!	!
.	.	8ryy	8ee\J	.	.	.	8ccc\J
!LO:LB:g=original	!	!LO:LB:g=original	!	!	!	!	!
=35	=35	=35	=35	=35	=35	=35	=35
4GG/	X 7	4.dd\	4.ff\	.	.	.	4.ddd\
8r	.	.	.	.	.	.	.
8GG/	.	8ee\	8gg\	.	.	.	8bb\
=36	=36	=36	=36	=36	=36	=36	=36
!LO:TX:a:t=P:problem=mixed beam	!	!	!	!	!	!	!
8C\L	.	8cc/L	8ee\L	.	2r	.	8eee\L
8F\	6 5	16e/L	16cc\L	.	.	.	16ccc\L
.	.	16f/JJ	16dd\JJ	.	.	.	16ddd\JJ
8G\	.	8.d/L	8.b/L	.	.	.	8.bb\L
8GG/J	.	.	.	.	.	.	.
.	.	16d/Jk	16b/Jk	.	.	.	16bb\Jk
!	!	!	!LO:LB:g=original	!	!	!	!
=37	=37	=37	=37	=37	=37	=37	=37
4C/	.	4e/	4cc\	.	4r	.	4ccc\
4r	.	4r	4r	.	8r	.	4r
.	.	.	.	.	8g/	ſub	.
=38	=38	=38	=38	=38	=38	=38	=38
!LO:N:vis=00	!	!	!	!	!	!	!
0r	.	2r	2r	.	4.cc\	ſpe-	2r
!	!	!LO:TX:a:t=1	!	!	!	!	!
.	.	.	.	.	16dd\	-ci-	.
.	.	.	.	.	16cc\	-e	.
=39	=39	=39	=39	=39	=39	=39	=39
.	.	4r	4r	.	8b\	Pa-	4r
.	.	.	.	.	8cc\	-niſ	.
.	.	8r	8r	.	8r	.	8r
!	!	!	!	!LO:DY:b:t=piano	!	!	!
.	.	8g/	8g/	p	8g/	ſub	8gg\
=40	=40	=40	=40	=40	=40	=40	=40
.	.	4.e/	4.cc\	.	4.ee\	Ca-	4.ccc\
.	.	16f/LL	16dd\LL	.	16ff\	-li-	16ddd\LL
.	.	16e/JJ	16cc\JJ	.	16ee\	-ce	16ccc\JJ
=41	=41	=41	=41	=41	=41	=41	=41
.	.	8d/L	8b\L	.	8dd\	vi-	8bb\L
.	.	8e/J	8cc\J	.	8ee\	-ni	8ccc\J
.	.	8r	8r	.	8r	.	8r
.	.	16e/LL	16cc\LL	.	16ee\LL	a-	16ee\LL
.	.	16f/JJ	16dd\JJ	.	16ff\JJ	.	16ff\JJ
!	!	!	!	!	!	!	!LO:LB:g=original
=42	=42	=42	=42	=42	=42	=42	=42
!LO:N:vis=00	!	!	!	!	!	!	!
0r	.	4g/	4ee\	.	4gg\	-do-	4gg\
.	.	4a/	4ff\	.	4aa\	-ro	4aa\
!	!	!	!	!	!LO:LB:g=original	!	!
=43	=43	=43	=43	=43	=43	=43	=43
.	.	4g/	4ee\	.	4gg\	Chri-	4gg\
.	.	4a/	4ff\	.	4aa\	-ſtu(m)	4aa\
=44	=44	=44	=44	=44	=44	=44	=44
.	.	8g/L	8ee\L	.	8gg\L	Chri-	8gg\L
.	.	16a/L	16ff\L	.	16aa\L	.	16aa\L
.	.	16g/JJ	16ee\JJ	.	16gg\JJ	.	16gg\JJ
.	.	16a/LL	16ff\LL	.	16aa\LL	.	16aa\LL
.	.	16g/	16ee\	.	16gg\	.	16gg\
.	.	16f/	16dd\	.	16ff\	.	16ff\
.	.	16e/JJ	16cc\JJ	.	16ee\JJ	.	16ee\JJ
=45	=45	=45	=45	=45	=45	=45	=45
.	.	8d/L	8b/L	.	8dd\	.	8dd\L
.	.	8d/J	8g/J	.	8g/	-ſtum	8dd\J
.	.	8r	8r	.	8r	.	8r
.	.	8g/	8dd\	.	(>16gg\LL	e-	8ddd\
.	.	.	.	.	16dd\JJ)	.	.
=46	=46	=46	=46	=46	=46	=46	=46
!LO:N:vis=00	!	!	!	!	!	!	!
0r	.	8d/L	8b\L	.	8dd\	-iuſ	8bb\L
.	.	16e/L	16cc\L	.	16ee\LL	pre-	16ccc\L
.	.	16d/JJ	16b\JJ	.	16dd\JJ	.	16bb\JJ
.	.	8d/L	8b\L	.	8dd\	-ſen-	8bb\L
.	.	16e/L	16cc\L	.	16ee\LL	-ti-	16ccc\L
.	.	16d/JJ	16b\JJ	.	16dd\JJ	.	16bb\JJ
=47	=47	=47	=47	=47	=47	=47	=47
.	.	8e/L	8cc\L	.	8ee\L	-ae	8ccc\L
.	.	16f/L	16dd\L	.	16ff\L	.	16ddd\L
.	.	16e/JJ	16cc\JJ	.	16ee\JJ	.	16ccc\JJ
.	.	8d/L	8b\L	.	8dd\	cor	8bb\L
.	.	8d/J	8b\J	.	16gg\LL	e-	8bb\J
.	.	.	.	.	16dd\JJ	.	.
=48	=48	=48	=48	=48	=48	=48	=48
.	.	8d/L	8b\L	.	8dd\	-iuſ	8bb\L
.	.	16e/L	16cc\L	.	16ee\LL	cle-	16ccc\L
.	.	16d/JJ	16b\JJ	.	16dd\JJ	.	16bb\JJ
.	.	8d/L	8b\L	.	8dd\	-men-	8bb\L
.	.	16e/L	16cc\L	.	16ee\LL	-ti-	16ccc\L
.	.	16d/JJ	16b\JJ	.	16dd\JJ	.	16bb\JJ
!	!	!	!LO:LB:g=original	!	!	!	!
=49	=49	=49	=49	=49	=49	=49	=49
.	.	8e/L	8cc\L	.	8ee\L	-ae	8ccc\L
.	.	16f/L	16dd\L	.	16ff\L	.	16ddd\L
.	.	16e/JJ	16cc\JJ	.	16ee\JJ	.	16ccc\JJ
!	!	!	!	!	!LO:LB:g=original	!	!
.	.	8d/L	8b\L	.	(>8dd\	cor	8bb\L
.	.	8e/J	8cc\J	.	8ee\)	.	8ccc\J
=50	=50	=50	=50	=50	=50	=50	=50
!LO:N:vis=00	!	!	!	!	!	!	!
0r	.	4.f/	4.dd\	.	4.ff\	of-	4.ddd\
.	.	8g/	8b\	.	16gg\	-fe-	8bb\
.	.	.	.	.	16gg\	-ro	.
=51	=51	=51	=51	=51	=51	=51	=51
!	!	!LO:TX:a:t=P:problem=mixed beam	!LO:TX:a:t=P:problem=mixed beam	!	!	!	!
.	.	8cc\L	8cc\L	.	8ee\	De-	8ccc\L
.	.	8e/	8e/	.	(>16dd\LL	.	8ee\
.	.	.	.	.	16cc\JJ)	.	.
.	.	8f/	8f/	.	8.b\	vo-	8ff\
.	.	8g/J	8g/J	.	.	.	8gg\J
.	.	.	.	.	16cc\	.	.
=52	=52	=52	=52	=52	=52	=52	=52
.	.	4cc\	4cc\	.	4cc\	-tum.	4ccc\
.	.	8r	8r	.	8r	.	8r
.	.	8g/	8b\	.	16gg\LL	e-	8bb\
.	.	.	.	.	16dd\JJ	.	.
!	!	!	!	!	!	!	!LO:LB:g=original
=53	=53	=53	=53	=53	=53	=53	=53
.	.	8g/L	8b\L	.	16ee\LL	-iuſ	8bb\L
.	.	.	.	.	16dd\JJ	.	.
.	.	16a/L	16cc\L	.	8dd\	pre-	16ccc\L
.	.	16g/JJ	16b\JJ	.	.	.	16bb\JJ
.	.	8g/L	8b\L	.	16ee\LL	-ſen-	8bb\L
.	.	.	.	.	16dd\JJ	.	.
.	.	16a/L	16cc\L	.	8dd\	-ti-	16ccc\L
.	.	16g/JJ	16b\JJ	.	.	.	16bb\JJ
=54	=54	=54	=54	=54	=54	=54	=54
!LO:N:vis=00	!	!	!	!	!	!	!
0r	.	8a/L	8cc\L	.	8ee\L	-ae	8ccc\L
.	.	16b/L	16dd\L	.	16ff\L	.	16ddd\L
.	.	16a/JJ	16cc\JJ	.	16ee\JJ	.	16ccc\JJ
.	.	8g/L	8b\L	.	8ee\	cor	8bb\L
.	.	8g/J	8b\J	.	16gg\LL	e-	8bb\J
.	.	.	.	.	16dd\JJ	.	.
=55	=55	=55	=55	=55	=55	=55	=55
.	.	8g/L	8b\L	.	8dd\	-iuſ	8bb\L
.	.	16a/L	16cc\L	.	16ee\LL	cle-	16ccc\L
.	.	16g/JJ	16b\JJ	.	16dd\JJ	.	16bb\JJ
.	.	8g/L	8b\L	.	8dd\	-men-	8bb\L
.	.	16a/L	16cc\L	.	16ee\LL	-ti-	16ccc\L
.	.	16g/JJ	16b\JJ	.	16dd\JJ	.	16bb\JJ
!	!	!LO:LB:g=original	!	!	!LO:LB:g=original	!	!
=56	=56	=56	=56	=56	=56	=56	=56
.	.	8a/L	8cc\L	.	8ee\L	-ae	8ccc\L
.	.	16b/L	16dd\L	.	16ff\L	.	16ddd\L
.	.	16a/JJ	16cc\JJ	.	16ee\JJ	.	16ccc\JJ
.	.	8g/L	8b\L	.	(>8dd\	-Cor	8bb\L
.	.	8a/J	8cc\J	.	8ee\)	.	8ccc\J
=57	=57	=57	=57	=57	=57	=57	=57
.	.	4b\	4dd\	.	4.ff\	of-	4ddd\
.	.	8r	8r	.	.	.	8r
.	.	8g/	8b\	.	16ff\	-fe-	8bb\
.	.	.	.	.	16gg\	-ro	.
=58	=58	=58	=58	=58	=58	=58	=58
!LO:N:vis=0	!	!	!	!	!	!	!
1r	.	8e/L	8cc\L	.	8ee\L	De-	8ccc\L
.	.	16f/L	16dd\L	.	16dd\L	.	16ddd\L
.	.	16g/JJ	16ee\JJ	.	16cc\JJ	.	16eee\JJ
.	.	8f/L	8dd\L	.	(>8.b\	-vo-	8ddd\L
.	.	16g/L	16ee\L	.	.	.	16eee\L
.	.	16f/JJ	16dd\JJ	.	16cc\)	.	16ddd\JJ
=59	=59	=59	=59	=59	=59	=59	=59
!	!	!	!	!	!LO:TX:a:i:t=Finis	!	!
.	.	4e/	4cc\	.	4cc;<\	-tum	4ccc\
.	.	8r	8r	.	4r	.	8r
.	.	8g/	8g/	.	.	.	8gg\
=60-	=60-	=60	=60	=60	=60	=60	=60
!	!	!	!	!	!LO:N:vis=00	!	!
4C/	.	4.e/	4.cc\	.	0r	.	4.ccc\
4F\	.	.	.	.	.	.	.
.	.	16f/LL	16dd\LL	.	.	.	16ddd\LL
.	.	16e/JJ	16cc\JJ	.	.	.	16ccc\JJ
!	!	!	!LO:LB:g=original	!	!	!	!
=61	=61	=61	=61	=61	=61	=61	=61
8G\L	.	8d/L	8b\L	.	.	.	8bb\L
8C\J	.	8e/J	8cc\J	.	.	.	8ccc\J
4r	.	8r	8r	.	.	.	8r
.	.	8g/	8g/	.	.	.	8ccc\
!	!	!	!	!	!	!	!LO:LB:g=original
=62	=62	=62	=62	=62	=62	=62	=62
4C/	.	4.cc\	4.ee\	.	.	.	4.eee\
4F\	.	.	.	.	.	.	.
.	.	16dd\LL	16ff\LL	.	.	.	16fff\LL
.	.	16cc\JJ	16ee\JJ	.	.	.	16eee\JJ
=63	=63	=63	=63	=63	=63	=63	=63
8G\L	.	8b\L	8dd\L	.	.	.	8ddd\L
8C\J	.	8cc\J	8ee\J	.	.	.	8eee\J
8r	.	8r	8r	.	.	.	8r
!LO:LB:g=original	!	!	!	!	!	!	!
16C/LL	.	16cc\LL	16ee\LL	.	.	.	16ee\LL
16D/JJ	.	16dd\JJ	16ff\JJ	.	.	.	16ff\JJ
=64	=64	=64	=64	=64	=64	=64	=64
!	!	!	!	!	!LO:N:vis=00	!	!
8E\L	X 7	4ee\	4gg\	.	0r	.	4gg\
8C\J	.	.	.	.	.	.	.
4F\	.	4ff\	4aa\	.	.	.	4aa\
=65	=65	=65	=65	=65	=65	=65	=65
8E\L	x 6	4ee\	4gg\	.	.	.	4gg\
8C\J	.	.	.	.	.	.	.
4F\	.	4ff\	4aa\	.	.	.	4aa\
=66	=66	=66	=66	=66	=66	=66	=66
8E\L	.	8ee\L	8gg\L	.	.	.	8gg\L
8C\	.	16ff\L	16aa\L	.	.	.	16aa\L
.	.	16ee\JJ	16gg\JJ	.	.	.	16gg\JJ
8F\	.	16ff\LL	16aa\LL	.	.	.	16aa\LL
.	.	16ee\	16gg\	.	.	.	16gg\
8A\J	.	16dd\	16ff\	.	.	.	16ff\
.	.	16cc\JJ	16ee\JJ	.	.	.	16ee\JJ
!	!	!LO:LB:g=original	!	!	!	!	!
=67	=67	=67	=67	=67	=67	=67	=67
!LO:TX:a:t=P:problem=mixed beam	!	!	!LO:TX:a:t=P:problem=mixed beam	!	!	!	!
8G\L	.	8b\L	8dd\L	.	.	.	8dd\L
8GG/J	.	8b\J	8g/J	.	.	.	8dd\J
8r	.	8r	8r	.	.	.	8r
8GG/	.	16dd\LL	16gg\LL	.	.	.	16ddd\LL
.	.	16b\JJ	16dd\JJ	.	.	.	16bb\JJ
=68	=68	=68	=68	=68	=68	=68	=68
!	!	!	!	!	!LO:N:vis=00	!	!
4GG/	.	8b\L	8dd\L	.	0r	.	8bb\L
.	.	16cc\L	16ee\L	.	.	.	16ccc\L
.	.	16b\JJ	16dd\JJ	.	.	.	16bb\JJ
4GG/	.	8b\L	8dd\L	.	.	.	8bb\L
.	.	16cc\L	16ee\L	.	.	.	16ccc\L
.	.	16b\JJ	16dd\JJ	.	.	.	16bb\JJ
=69	=69	=69	=69	=69	=69	=69	=69
4GG/	6 4	8cc\L	8ee\L	.	.	.	8ccc\L
!	!	!	!	!	!	!	!LO:TX:a:t=P:problem=w źródle kleks na nucie, dlatego dopisek "d" nad nutą
!	!	!	!	!	!	!	!LO:TX:a:t=d
.	.	16dd\L	16ff\L	.	.	.	16ddd\L
.	.	16cc\JJ	16ee\JJ	.	.	.	16ccc\JJ
4r	.	8b\L	8dd\L	.	.	.	8bb\L
.	.	16dd\L	16gg\L	.	.	.	16bb\L
.	.	16b\JJ	16dd\JJ	.	.	.	16gg\JJ
=70	=70	=70	=70	=70	=70	=70	=70
4GG/	.	8b\L	8dd\L	.	.	.	8bb\L
.	.	16cc\L	16ee\L	.	.	.	16ccc\L
.	.	16b\JJ	16dd\JJ	.	.	.	16bb\JJ
4GG/	.	8b\L	8dd\L	.	.	.	8bb\L
.	.	16cc\L	16ee\L	.	.	.	16ccc\L
.	.	16b\JJ	16dd\JJ	.	.	.	16bb\JJ
!LO:LB:g=original	!	!	!LO:LB:g=original	!	!	!	!LO:LB:g=original
=71	=71	=71	=71	=71	=71	=71	=71
4GG/	6 4	8cc\L	8ee\L	.	.	.	8ccc\L
.	.	16dd\L	16ff\L	.	.	.	16ddd\L
.	.	16cc\JJ	16ee\JJ	.	.	.	16ccc\JJ
4r	.	8b\L	8dd\L	.	.	.	8bb\L
.	.	8cc\J	8ee\J	.	.	.	8ccc\J
=72	=72	=72	=72	=72	=72	=72	=72
!	!	!	!	!	!LO:N:vis=00	!	!
4GG/	X 7	4.dd\	4.ff\	.	0r	.	4.ddd\
4GG/	.	.	.	.	.	.	.
.	.	8ee\	8gg\	.	.	.	8bb\
=73	=73	=73	=73	=73	=73	=73	=73
!LO:TX:a:t=P:problem=mixed beam	!	!	!	!	!	!	!
8C\L	.	8cc\L	8ee\L	.	.	.	8eee\L
8F\	.	16b\L	16dd\L	.	.	.	16ddd\L
.	.	16a\JJ	16cc\JJ	.	.	.	16ccc\JJ
8G\	.	8g/L	8g/L	.	.	.	8gg\L
8GG/J	.	8g/J	8b/J	.	.	.	8bb\J
=74	=74	=74	=74	=74	=74	=74	=74
4C/	.	4e/	4cc\	.	.	.	4ccc\
4r	.	8r	8r	.	.	.	8r
.	.	16dd\LL	16gg\LL	.	.	.	16ddd\LL
.	.	16b\JJ	16dd\JJ	.	.	.	16bb\JJ
=75	=75	=75	=75	=75	=75	=75	=75
4GG/	.	8b\L	8dd\L	.	.	.	8bb\L
.	.	16cc\L	16ee\L	.	.	.	16ccc\L
.	.	16b\JJ	16dd\JJ	.	.	.	16bb\JJ
4GG/	.	8b\L	8dd\L	.	.	.	8bb\L
.	.	16cc\L	16ee\L	.	.	.	16ccc\L
.	.	16b\JJ	16dd\JJ	.	.	.	16bb\JJ
!	!	!LO:LB:g=original	!	!	!	!	!
=76	=76	=76	=76	=76	=76	=76	=76
!	!	!	!	!	!LO:N:vis=00	!	!
4GG/	6 4	8cc\L	8ee\L	.	0r	.	8ccc\L
.	.	16dd\L	16ff\L	.	.	.	16ddd\L
.	.	16cc\JJ	16ee\JJ	.	.	.	16ccc\JJ
4r	.	8b\L	8dd\L	.	.	.	8bb\L
.	.	16dd\L	16gg\L	.	.	.	16bb\L
.	.	16b\JJ	16dd\JJ	.	.	.	16gg\JJ
=77	=77	=77	=77	=77	=77	=77	=77
4GG/	.	8b/L	8dd\L	.	.	.	8bb\L
.	.	16cc/L	16ee\L	.	.	.	16ccc\L
.	.	16b/JJ	16dd\JJ	.	.	.	16bb\JJ
4GG/	.	8b/L	8dd\L	.	.	.	8bb\L
.	.	16cc/L	16ee\L	.	.	.	16ccc\L
.	.	16b/JJ	16dd\JJ	.	.	.	16bb\JJ
=78	=78	=78	=78	=78	=78	=78	=78
4GG/	6 4	8cc\L	8ee\L	.	.	.	8ccc\L
.	.	16dd\L	16ff\L	.	.	.	16ddd\L
.	.	16cc\JJ	16ee\JJ	.	.	.	16ccc\JJ
4r	.	8b\L	8dd\L	.	.	.	8bb\L
.	.	8cc\J	8ee\J	.	.	.	8ccc\J
=79	=79	=79	=79	=79	=79	=79	=79
4GG/	X 7	4.dd\	4.ff\	.	.	.	4.ddd\
4GG/	.	.	.	.	.	.	.
.	.	8ee\	8gg\	.	.	.	8bb\
!LO:PB:g=original	!	!	!	!	!	!	!LO:LB:g=original
=80	=80	=80	=80	=80	=80	=80	=80
!LO:TX:a:t=P:problem=mixed beam	!	!	!	!	!	!	!
8C\L	.	8cc\L	8ee\L	.	2r	.	8eee\L
8F\	6 4	16b\L	16dd\L	.	.	.	16ddd\L
.	.	16a\JJ	16cc\JJ	.	.	.	16ccc\JJ
8G\	X 4	8g/L	8.g/L	.	.	.	8gg\L
8GG/J	X 3	8g/J	.	.	.	.	8bb\J
.	.	.	16b/Jk	.	.	.	.
=81	=81	=81	=81	=81	=81	=81	=81
!	!	!	!LO:TX:a:i:t=Finis	!	!	!	!
!LO:TX:a:i:t=Finis	!	!	!	!	!	!	!
8C;;/L	.	4e;;/	4cc;;\	.	4r	.	4ccc;;\
16BB/L	.	.	.	.	.	.	.
16AA/JJ	.	.	.	.	.	.	.
!	!	!	!	!	!	!	!LO:TX:b:i:t=Finis
8A\L	.	4r	4r	.	8r	.	4r
8G#X\J	.	.	.	.	8e/	a-	.
=82	=82	=82||	=82	=82	=82	=82	=82||
!	!	!LO:N:vis=00	!	!	!	!	!LO:N:vis=00
4r	.	0r	2r	.	4a\	-ve	0r
4G#X\	.	.	.	.	4b\	Rex	.
=83	=83	=83	=83||	=83	=83	=83	=83
!	!	!	!LO:N:vis=00	!	!	!	!
4A\	.	.	0r	.	8.cc\	glo-	.
.	.	.	.	.	16b\	-ri-	.
4r	.	.	.	.	8a\	-ae	.
.	.	.	.	.	8gg\	Dul-	.
!	!	!	!	!	!LO:LB:g=original	!	!
=84	=84	=84	=84	=84	=84	=84	=84
8D/L	X 7	.	.	.	8aa\	-ciſ	.
8C/	X 7	.	.	.	8gg\	me-	.
8BB/	X 7	.	.	.	8ff\	-mo-	.
*	*reverse	*	*	*	*	*	*
8E/J	X 7#	.	.	.	8gg\	-ri-	.
*	*Xreverse	*	*	*	*	*	*
=85	=85	=85	=85	=85	=85	=85	=85
4AA/	X 6	.	.	.	4ee\	-a	.
8r	.	.	.	.	8r	.	.
8E\	.	.	.	.	16ee\LL	a-	.
.	.	.	.	.	16ff\JJ	.	.
=86	=86	=86	=86	=86	=86	=86	=86
!	!	!LO:N:vis=00	!	!	!	!	!LO:N:vis=00
16E\LL	.	0r	.	.	4gg\	.	0r
16D\	.	.	.	.	.	.	.
16E\	.	.	.	.	.	.	.
16C\JJ	.	.	.	.	.	.	.
16F\LL	.	.	.	.	4aa\	-ve	.
16E\	.	.	.	.	.	.	.
16F\	.	.	.	.	.	.	.
16C\JJ	.	.	.	.	.	.	.
!LO:LB:g=original	!	!	!	!	!	!	!
=87	=87	=87	=87	=87	=87	=87	=87
!	!	!	!LO:N:vis=00	!	!	!	!
16E\LL	.	.	0r	.	4gg\	Je-	.
16D\	.	.	.	.	.	.	.
16E\	.	.	.	.	.	.	.
16C\JJ	.	.	.	.	.	.	.
16F\LL	.	.	.	.	4aa\	-ſu	.
16E\	.	.	.	.	.	.	.
16F\	.	.	.	.	.	.	.
16C\JJ	.	.	.	.	.	.	.
=88	=88	=88	=88	=88	=88	=88	=88
8D\L	.	.	.	.	8gg\	Cor-	.
16E\L	.	.	.	.	16ff\LL	-diſ	.
16F\JJ	.	.	.	.	16ee\JJ	.	.
!LO:TX:a:t=P:problem=mixed beam	!	!	!	!	!	!	!
8G\L	X 4	.	.	.	8.dd\	gau-	.
8GG/J	X 3	.	.	.	.	.	.
.	.	.	.	.	16cc\	-di-	.
=89	=89	=89	=89	=89	=89	=89	=89
4C/	.	.	.	.	4cc\	-us	.
8r	.	.	.	.	8r	.	.
8C/	.	.	.	.	16gg\LL	Te	.
.	.	.	.	.	16dd\JJ	.	.
=90	=90	=90	=90	=90	=90	=90	=90
!	!	!LO:N:vis=00	!	!	!	!	!LO:N:vis=00
4GG/	.	0r	.	.	8dd\	mun-	0r
.	.	.	.	.	16ee\LL	-di	.
.	.	.	.	.	16dd\JJ	.	.
4GG/	.	.	.	.	8dd\	prae-	.
.	.	.	.	.	16ee\LL	.	.
.	.	.	.	.	16dd\JJ	.	.
=91	=91	=91	=91	=91	=91	=91	=91
*	*reverse	*	*	*	*	*	*
!	!	!	!LO:N:vis=00	!	!	!	!
4GG/	6 4#	.	0r	.	8ee\	-ti-	.
*	*Xreverse	*	*	*	*	*	*
.	.	.	.	.	16ff\LL	-um.	.
.	.	.	.	.	16ee\JJ	.	.
4r	.	.	.	.	8dd\	Cae-	.
!	!	!	!	!	!LO:LB:g=original	!	!
.	.	.	.	.	16gg\LL	.	.
.	.	.	.	.	16dd\JJ	.	.
=92	=92	=92	=92	=92	=92	=92	=92
4GG/	.	.	.	.	8dd\	-Cae-	.
.	.	.	.	.	16ee\LL	-le-	.
.	.	.	.	.	16dd\JJ	.	.
4GG/	.	.	.	.	8dd\	-ſte	.
.	.	.	.	.	16ee\LL	pre-	.
.	.	.	.	.	16dd\JJ	.	.
=93	=93	=93	=93	=93	=93	=93	=93
4GG/	6 4	.	.	.	8ee\L	-mi-	.
.	.	.	.	.	16ff\L	.	.
.	.	.	.	.	16ee\JJ	.	.
4r	.	.	.	.	8dd\	-um	.
.	.	.	.	.	8ee\	Fi-	.
!LO:LB:g=original	!	!	!	!	!	!	!
=94	=94	=94	=94	=94	=94	=94	=94
!	!	!LO:N:vis=0	!	!	!	!	!LO:N:vis=0
4GG/	X 7	1r	.	.	4ff\	-gu-	1r
4r	.	.	.	.	4gg\	-re	.
=95	=95	=95	=95	=95	=95	=95	=95
!LO:TX:a:t=P:problem=mixed beam	!	!	!	!	!	!	!
!	!	!	!LO:N:vis=0	!	!	!	!
8C\L	.	.	2r	.	8cc\	ve-	.
8F\	.	.	.	.	16dd\LL	-ra	.
.	.	.	.	.	16ee\JJ	.	.
8G\	.	.	.	.	8.g\	ſunt	.
8GG/J	.	.	.	.	.	.	.
.	.	.	.	.	16b\	i-	.
=96	=96	=96	=96	=96	=96	=96	=96
!	!	!LO:TX:b:i:t=Da kapo	!	!	!	!	!
4C/	.	4r	4r	.	4.cc\	-ſte	4r
!	!	!	!LO:TX:b:i:t=Da Capo	!	!	!	!
4r	.	8r	8r	.	.	.	8r
!LO:TX:a:i:t=Da Capo ad ſignum Finiſ	!	!	!	!	!	!	!
.	.	8ryy	8ryy	.	8ryy	.	8gg\
!	!	!	!	!	!	!	!LO:TX:a:t=P:problem= w źródle "Da capo" zapisane na pięciolinii
!	!	!	!	!	!LO:TX:b:i:t=Da Capo ad\nſignum Finiſ	!	!LO:TX:b:i:t=Da capo
==-	==-	==	==-	==	==	==	==
*-	*-	*-	*-	*-	*-	*-	*-
!!!system-decoration: s1,s2,[g1],s5
!!!RDF**kern: > = above
!!!RDF**kern: < = below
!!!EED: Antoni Szymański
!!!EEV: 2020-11-09
!!!ENC: Krzysztof Stępień
!!!END: 2020-05-23
